X:516
T:Garry Owen. RH.516
R:jig
S:Rev.R.Harrison’s MS,c1815,Cumbria
N:Hand 3
O:England
A:Temple Sowerby,Cumbria
Z:vmp.Simon Wilson. Review PJH, 2008.
M:6/8
L:1/8
Q:3/8=120
K:D
(dc)|.B.A.G .F.E.D|(F>GF) .F.d.c|\
.B.A.G .F.E.D|(E>FE) .E.d.c|!
.B.A.G .F.E.D|(F>GF)F2A|ABc dAF|EFE E|!
|:FG|.Az.F .Az.F “music runs out”.Az.F .Az.d|\
.Bz.G .Bz.G|]
